public/style/workarea/images/icons/exe-upload-cloud-icon-green.svg

<svg fill="none" height="25" viewBox="0 0 25 25" width="25" xmlns="http://www.w3.org/2000/svg" xmlns:xlink="http://www.w3.org/1999/xlink"><clipPath id="a"><path d="m.742676.7099h24v24h-24z"/></clipPath><g clip-path="url(#a)" stroke="#0ba1a1" stroke-linecap="round" stroke-linejoin="round" stroke-width="2"><path d="m16.7427 16.7099-4-4-4.00002 4"/><path d="m12.7427 12.7099v9"/><path d="m21.1326 19.0999c.9754-.5317 1.7459-1.3731 2.1899-2.3914.4441-1.0182.5364-2.1554.2623-3.2319-.274-1.0766-.8987-2.0312-1.7755-2.7133-.8768-.682-1.9558-1.05268-3.0667-1.05342h-1.26c-.3026-1.17075-.8668-2.25766-1.65-3.179s-1.7651-1.65315-2.8719-2.14039c-1.1067-.48724-2.3095-.71725-3.51795-.67272-1.20843.04452-2.39105.36241-3.45894.92978-1.06789.56736-1.99326 1.36944-2.70655 2.34592-.71329.97647-1.19593 2.10195-1.41164 3.29183-.21571 1.1898-.15888 2.4131.16623 3.5778.32511 1.1648.91003 2.2406 1.71079 3.1468"/><path d="m16.7427 16.7099-4-4-4.00002 4"/></g></svg>

<svg width="25" height="25" viewBox="0 0 25 25" fill="none" xmlns="http://www.w3.org/2000/svg">
<g clip-path="url(#clip0_14_483)">
<path d="M16.7427 16.7099L12.7427 12.7099L8.74268 16.7099" stroke="#0BA1A1" stroke-width="2" stroke-linecap="round" stroke-linejoin="round"/>
<path d="M12.7427 12.7099V21.7099" stroke="#0BA1A1" stroke-width="2" stroke-linecap="round" stroke-linejoin="round"/>
<path d="M21.1326 19.0999C22.108 18.5682 22.8785 17.7268 23.3225 16.7085C23.7666 15.6903 23.8589 14.5531 23.5848 13.4766C23.3108 12.4 22.6861 11.4454 21.8093 10.7633C20.9325 10.0813 19.8535 9.71062 18.7426 9.70988H17.4826C17.18 8.53913 16.6158 7.45222 15.8326 6.53088C15.0494 5.60954 14.0675 4.87773 12.9607 4.39049C11.854 3.90325 10.6512 3.67324 9.44275 3.71777C8.23432 3.76229 7.0517 4.08018 5.98381 4.64755C4.91592 5.21491 3.99055 6.01699 3.27726 6.99347C2.56397 7.96994 2.08133 9.09542 1.86562 10.2853C1.64991 11.4751 1.70674 12.6984 2.03185 13.8631C2.35696 15.0279 2.94188 16.1037 3.74264 17.0099" stroke="#0BA1A1" stroke-width="2" stroke-linecap="round" stroke-linejoin="round"/>
<path d="M16.7427 16.7099L12.7427 12.7099L8.74268 16.7099" stroke="#0BA1A1" stroke-width="2" stroke-linecap="round" stroke-linejoin="round"/>
</g>
<defs>
<clipPath id="clip0_14_483">
<rect width="24" height="24" fill="white" transform="translate(0.742676 0.7099)"/>
</clipPath>
</defs>
</svg>
